src/assests/svgs/excel.svg

<?xml version="1.0" encoding="UTF-8"?>
<!DOCTYPE svg  PUBLIC '-//W3C//DTD SVG 1.1//EN'  'http://www.w3.org/Graphics/SVG/1.1/DTD/svg11.dtd'>
<svg clip-rule="evenodd" fill-rule="evenodd" stroke-linejoin="round" stroke-miterlimit="2" version="1.1" viewBox="0 0 17 17" xml:space="preserve" xmlns="http://www.w3.org/2000/svg">
    <g transform="translate(-11845 -24296)">
        <g transform="matrix(.032087 0 0 .032087 11853 24304)">
            <g transform="translate(-256 -256)" fill-rule="nonzero">
                <path d="m496 432.01h-224c-8.832 0-16-7.168-16-16v-320c0-8.832 7.168-16 16-16h224c8.832 0 16 7.168 16 16v320c0 8.832-7.168 16-16 16z" fill="#eceff1"/>
                <g fill="#388e3c">
                    <path d="m336 176.01h-64c-8.832 0-16-7.168-16-16s7.168-16 16-16h64c8.832 0 16 7.168 16 16s-7.168 16-16 16z"/>
                    <path d="m336 240.01h-64c-8.832 0-16-7.168-16-16s7.168-16 16-16h64c8.832 0 16 7.168 16 16s-7.168 16-16 16z"/>
                    <path d="m336 304.01h-64c-8.832 0-16-7.168-16-16s7.168-16 16-16h64c8.832 0 16 7.168 16 16s-7.168 16-16 16z"/>
                    <path d="m336 368.01h-64c-8.832 0-16-7.168-16-16s7.168-16 16-16h64c8.832 0 16 7.168 16 16s-7.168 16-16 16z"/>
                    <path d="m432 176.01h-32c-8.832 0-16-7.168-16-16s7.168-16 16-16h32c8.832 0 16 7.168 16 16s-7.168 16-16 16z"/>
                    <path d="m432 240.01h-32c-8.832 0-16-7.168-16-16s7.168-16 16-16h32c8.832 0 16 7.168 16 16s-7.168 16-16 16z"/>
                    <path d="m432 304.01h-32c-8.832 0-16-7.168-16-16s7.168-16 16-16h32c8.832 0 16 7.168 16 16s-7.168 16-16 16z"/>
                    <path d="m432 368.01h-32c-8.832 0-16-7.168-16-16s7.168-16 16-16h32c8.832 0 16 7.168 16 16s-7.168 16-16 16z"/>
                </g>
                <path d="m282.21 19.691c-3.648-3.04-8.544-4.352-13.152-3.392l-256 48c-7.584 1.408-13.056 8-13.056 15.712v352c0 7.68 5.472 14.304 13.056 15.712l256 48c0.96 0.192 1.952 0.288 2.944 0.288 3.712 0 7.328-1.28 10.208-3.68 3.68-3.04 5.792-7.584 5.792-12.32v-448c0-4.768-2.112-9.28-5.792-12.32z" fill="#2e7d32"/>
                <path d="m220.03 309.48-50.592-57.824 51.168-65.792c5.44-6.976 4.16-17.024-2.784-22.464s-16.992-4.16-22.464 2.784l-47.392 60.928-39.936-45.632c-5.856-6.72-15.968-7.328-22.56-1.504-6.656 5.824-7.328 15.936-1.504 22.56l44 50.304-44.608 57.344c-5.44 6.976-4.16 17.024 2.784 22.464 2.944 2.272 6.432 3.36 9.856 3.36 4.768 0 9.472-2.112 12.64-6.176l40.8-52.48 46.528 53.152c3.168 3.648 7.584 5.504 12.032 5.504 3.744 0 7.488-1.312 10.528-3.968 6.656-5.824 7.328-15.936 1.504-22.56z" fill="#fafafa"/>
            </g>
        </g>
    </g>
</svg>

<?xml version="1.0" encoding="UTF-8" standalone="no"?>
<!DOCTYPE svg PUBLIC "-//W3C//DTD SVG 1.1//EN" "http://www.w3.org/Graphics/SVG/1.1/DTD/svg11.dtd">
<svg width="100%" height="100%" viewBox="0 0 17 17" version="1.1" xmlns="http://www.w3.org/2000/svg" xmlns:xlink="http://www.w3.org/1999/xlink" xml:space="preserve" xmlns:serif="http://www.serif.com/" style="fill-rule:evenodd;clip-rule:evenodd;stroke-linejoin:round;stroke-miterlimit:2;">
    <g transform="matrix(1,0,0,1,-11845.1,-24295.7)">
        <g id="excel" transform="matrix(0.0320868,0,0,0.0320868,11853.3,24303.9)">
            <g transform="matrix(1,0,0,1,-256,-256)">
                <path d="M496,432.011L272,432.011C263.168,432.011 256,424.843 256,416.011L256,96.011C256,87.179 263.168,80.011 272,80.011L496,80.011C504.832,80.011 512,87.179 512,96.011L512,416.011C512,424.843 504.832,432.011 496,432.011Z" style="fill:rgb(236,239,241);fill-rule:nonzero;"/>
                <g>
                    <path d="M336,176.011L272,176.011C263.168,176.011 256,168.843 256,160.011C256,151.179 263.168,144.011 272,144.011L336,144.011C344.832,144.011 352,151.179 352,160.011C352,168.843 344.832,176.011 336,176.011Z" style="fill:rgb(56,142,60);fill-rule:nonzero;"/>
                    <path d="M336,240.011L272,240.011C263.168,240.011 256,232.843 256,224.011C256,215.179 263.168,208.011 272,208.011L336,208.011C344.832,208.011 352,215.179 352,224.011C352,232.843 344.832,240.011 336,240.011Z" style="fill:rgb(56,142,60);fill-rule:nonzero;"/>
                    <path d="M336,304.011L272,304.011C263.168,304.011 256,296.843 256,288.011C256,279.179 263.168,272.011 272,272.011L336,272.011C344.832,272.011 352,279.179 352,288.011C352,296.843 344.832,304.011 336,304.011Z" style="fill:rgb(56,142,60);fill-rule:nonzero;"/>
                    <path d="M336,368.011L272,368.011C263.168,368.011 256,360.843 256,352.011C256,343.179 263.168,336.011 272,336.011L336,336.011C344.832,336.011 352,343.179 352,352.011C352,360.843 344.832,368.011 336,368.011Z" style="fill:rgb(56,142,60);fill-rule:nonzero;"/>
                    <path d="M432,176.011L400,176.011C391.168,176.011 384,168.843 384,160.011C384,151.179 391.168,144.011 400,144.011L432,144.011C440.832,144.011 448,151.179 448,160.011C448,168.843 440.832,176.011 432,176.011Z" style="fill:rgb(56,142,60);fill-rule:nonzero;"/>
                    <path d="M432,240.011L400,240.011C391.168,240.011 384,232.843 384,224.011C384,215.179 391.168,208.011 400,208.011L432,208.011C440.832,208.011 448,215.179 448,224.011C448,232.843 440.832,240.011 432,240.011Z" style="fill:rgb(56,142,60);fill-rule:nonzero;"/>
                    <path d="M432,304.011L400,304.011C391.168,304.011 384,296.843 384,288.011C384,279.179 391.168,272.011 400,272.011L432,272.011C440.832,272.011 448,279.179 448,288.011C448,296.843 440.832,304.011 432,304.011Z" style="fill:rgb(56,142,60);fill-rule:nonzero;"/>
                    <path d="M432,368.011L400,368.011C391.168,368.011 384,360.843 384,352.011C384,343.179 391.168,336.011 400,336.011L432,336.011C440.832,336.011 448,343.179 448,352.011C448,360.843 440.832,368.011 432,368.011Z" style="fill:rgb(56,142,60);fill-rule:nonzero;"/>
                </g>
                <path d="M282.208,19.691C278.56,16.651 273.664,15.339 269.056,16.299L13.056,64.299C5.472,65.707 0,72.299 0,80.011L0,432.011C0,439.691 5.472,446.315 13.056,447.723L269.056,495.723C270.016,495.915 271.008,496.011 272,496.011C275.712,496.011 279.328,494.731 282.208,492.331C285.888,489.291 288,484.747 288,480.011L288,32.011C288,27.243 285.888,22.731 282.208,19.691Z" style="fill:rgb(46,125,50);fill-rule:nonzero;"/>
                <path d="M220.032,309.483L169.44,251.659L220.608,185.867C226.048,178.891 224.768,168.843 217.824,163.403C210.88,157.963 200.832,159.243 195.36,166.187L147.968,227.115L108.032,181.483C102.176,174.763 92.064,174.155 85.472,179.979C78.816,185.803 78.144,195.915 83.968,202.539L127.968,252.843L83.36,310.187C77.92,317.163 79.2,327.211 86.144,332.651C89.088,334.923 92.576,336.011 96,336.011C100.768,336.011 105.472,333.899 108.64,329.835L149.44,277.355L195.968,330.507C199.136,334.155 203.552,336.011 208,336.011C211.744,336.011 215.488,334.699 218.528,332.043C225.184,326.219 225.856,316.107 220.032,309.483Z" style="fill:rgb(250,250,250);fill-rule:nonzero;"/>
            </g>
        </g>
    </g>
</svg>
